X: 131016
T: Mowing the Hay
S: Darley & McCall Collection 
Z: B.Black 
L: 1/8
M: 6/8
R: jig
K: G
B3 d3|dBG d2B|c3 A3|DFA cBA|
B3 d3|efg gfe|dcB AGF|G3 G3 :|
ABc def|gfe d2B|efg edc|BAG FED|
BAG dcB|gfe d2c|dcB AGF|G3 G3 :|
